src/assets/InnovacionTecnologica.svg

<svg width="56" height="56" viewBox="0 0 56 56" fill="none" xmlns="http://www.w3.org/2000/svg">
<circle cx="28" cy="28" r="28" fill="#FF7A00"/>
<mask id="mask0_271_1118" style="mask-type:alpha" maskUnits="userSpaceOnUse" x="16" y="16" width="24" height="24">
<rect x="16" y="16" width="24" height="24" fill="#D9D9D9"/>
</mask>
<g mask="url(#mask0_271_1118)">
<path d="M28 38.5C27.1667 38.5 26.4583 38.2083 25.875 37.625C25.2917 37.0417 25 36.3333 25 35.5C25 34.85 25.1875 34.2667 25.5625 33.75C25.9375 33.2333 26.4167 32.875 27 32.675V30.85C26.8167 30.7833 26.6417 30.7042 26.475 30.6125C26.3083 30.5208 26.1583 30.4083 26.025 30.275L24.45 31.2C24.4667 31.2833 24.4792 31.3708 24.4875 31.4625C24.4958 31.5542 24.5 31.65 24.5 31.75C24.5 32.5833 24.2083 33.2917 23.625 33.875C23.0417 34.4583 22.3333 34.75 21.5 34.75C20.6667 34.75 19.9583 34.4583 19.375 33.875C18.7917 33.2917 18.5 32.5833 18.5 31.75C18.5 30.9167 18.7917 30.2083 19.375 29.625C19.9583 29.0417 20.6667 28.75 21.5 28.75C21.8833 28.75 22.2417 28.8125 22.575 28.9375C22.9083 29.0625 23.2083 29.2417 23.475 29.475L25.025 28.575C25.0083 28.4917 24.9958 28.4 24.9875 28.3C24.9792 28.2 24.975 28.1 24.975 28C24.975 27.9 24.9792 27.8042 24.9875 27.7125C24.9958 27.6208 25.0083 27.5333 25.025 27.45L23.475 26.525C23.2083 26.7583 22.9083 26.9375 22.575 27.0625C22.2417 27.1875 21.8833 27.25 21.5 27.25C20.6667 27.25 19.9583 26.9583 19.375 26.375C18.7917 25.7917 18.5 25.0833 18.5 24.25C18.5 23.4167 18.7917 22.7083 19.375 22.125C19.9583 21.5417 20.6667 21.25 21.5 21.25C22.3333 21.25 23.0417 21.5417 23.625 22.125C24.2083 22.7083 24.5 23.4167 24.5 24.25C24.5 24.35 24.4958 24.45 24.4875 24.55C24.4792 24.65 24.4667 24.7417 24.45 24.825L26.025 25.725C26.1583 25.5917 26.3083 25.4833 26.475 25.4C26.6417 25.3167 26.8167 25.2417 27 25.175V23.35C26.4167 23.15 25.9375 22.7875 25.5625 22.2625C25.1875 21.7375 25 21.15 25 20.5C25 19.6667 25.2917 18.9583 25.875 18.375C26.4583 17.7917 27.1667 17.5 28 17.5C28.8333 17.5 29.5417 17.7917 30.125 18.375C30.7083 18.9583 31 19.6667 31 20.5C31 21.15 30.8125 21.7375 30.4375 22.2625C30.0625 22.7875 29.5833 23.15 29 23.35V25.175C29.1833 25.2417 29.3542 25.3208 29.5125 25.4125C29.6708 25.5042 29.8167 25.6167 29.95 25.75L31.55 24.8C31.5333 24.7167 31.5208 24.6292 31.5125 24.5375C31.5042 24.4458 31.5 24.35 31.5 24.25C31.5 23.4167 31.7917 22.7083 32.375 22.125C32.9583 21.5417 33.6667 21.25 34.5 21.25C35.3333 21.25 36.0417 21.5417 36.625 22.125C37.2083 22.7083 37.5 23.4167 37.5 24.25C37.5 25.0833 37.2083 25.7917 36.625 26.375C36.0417 26.9583 35.3333 27.25 34.5 27.25C34.1167 27.25 33.7625 27.1875 33.4375 27.0625C33.1125 26.9375 32.8167 26.7583 32.55 26.525L30.925 27.475C30.9417 27.5583 30.9542 27.6458 30.9625 27.7375C30.9708 27.8292 30.975 27.9167 30.975 28C30.975 28.0833 30.9708 28.175 30.9625 28.275C30.9542 28.375 30.9417 28.4667 30.925 28.55L32.55 29.475C32.8167 29.2417 33.1125 29.0625 33.4375 28.9375C33.7625 28.8125 34.1167 28.75 34.5 28.75C35.3333 28.75 36.0417 29.0417 36.625 29.625C37.2083 30.2083 37.5 30.9167 37.5 31.75C37.5 32.5833 37.2083 33.2917 36.625 33.875C36.0417 34.4583 35.3333 34.75 34.5 34.75C33.6667 34.75 32.9583 34.4583 32.375 33.875C31.7917 33.2917 31.5 32.5833 31.5 31.75C31.5 31.65 31.5042 31.5542 31.5125 31.4625C31.5208 31.3708 31.5333 31.2833 31.55 31.2L29.95 30.275C29.8167 30.4083 29.6708 30.5167 29.5125 30.6C29.3542 30.6833 29.1833 30.7583 29 30.825V32.675C29.5833 32.875 30.0625 33.2333 30.4375 33.75C30.8125 34.2667 31 34.85 31 35.5C31 36.3333 30.7083 37.0417 30.125 37.625C29.5417 38.2083 28.8333 38.5 28 38.5ZM28 36.5C28.2833 36.5 28.5208 36.4042 28.7125 36.2125C28.9042 36.0208 29 35.7833 29 35.5C29 35.2167 28.9042 34.9792 28.7125 34.7875C28.5208 34.5958 28.2833 34.5 28 34.5C27.7167 34.5 27.4792 34.5958 27.2875 34.7875C27.0958 34.9792 27 35.2167 27 35.5C27 35.7833 27.0958 36.0208 27.2875 36.2125C27.4792 36.4042 27.7167 36.5 28 36.5ZM21.5 32.75C21.7833 32.75 22.0208 32.6542 22.2125 32.4625C22.4042 32.2708 22.5 32.0333 22.5 31.75C22.5 31.4667 22.4042 31.2292 22.2125 31.0375C22.0208 30.8458 21.7833 30.75 21.5 30.75C21.2167 30.75 20.9792 30.8458 20.7875 31.0375C20.5958 31.2292 20.5 31.4667 20.5 31.75C20.5 32.0333 20.5958 32.2708 20.7875 32.4625C20.9792 32.6542 21.2167 32.75 21.5 32.75ZM34.5 32.75C34.7833 32.75 35.0208 32.6542 35.2125 32.4625C35.4042 32.2708 35.5 32.0333 35.5 31.75C35.5 31.4667 35.4042 31.2292 35.2125 31.0375C35.0208 30.8458 34.7833 30.75 34.5 30.75C34.2167 30.75 33.9792 30.8458 33.7875 31.0375C33.5958 31.2292 33.5 31.4667 33.5 31.75C33.5 32.0333 33.5958 32.2708 33.7875 32.4625C33.9792 32.6542 34.2167 32.75 34.5 32.75ZM28 29C28.2833 29 28.5208 28.9042 28.7125 28.7125C28.9042 28.5208 29 28.2833 29 28C29 27.7167 28.9042 27.4792 28.7125 27.2875C28.5208 27.0958 28.2833 27 28 27C27.7167 27 27.4792 27.0958 27.2875 27.2875C27.0958 27.4792 27 27.7167 27 28C27 28.2833 27.0958 28.5208 27.2875 28.7125C27.4792 28.9042 27.7167 29 28 29ZM21.5 25.25C21.7833 25.25 22.0208 25.1542 22.2125 24.9625C22.4042 24.7708 22.5 24.5333 22.5 24.25C22.5 23.9667 22.4042 23.7292 22.2125 23.5375C22.0208 23.3458 21.7833 23.25 21.5 23.25C21.2167 23.25 20.9792 23.3458 20.7875 23.5375C20.5958 23.7292 20.5 23.9667 20.5 24.25C20.5 24.5333 20.5958 24.7708 20.7875 24.9625C20.9792 25.1542 21.2167 25.25 21.5 25.25ZM34.5 25.25C34.7833 25.25 35.0208 25.1542 35.2125 24.9625C35.4042 24.7708 35.5 24.5333 35.5 24.25C35.5 23.9667 35.4042 23.7292 35.2125 23.5375C35.0208 23.3458 34.7833 23.25 34.5 23.25C34.2167 23.25 33.9792 23.3458 33.7875 23.5375C33.5958 23.7292 33.5 23.9667 33.5 24.25C33.5 24.5333 33.5958 24.7708 33.7875 24.9625C33.9792 25.1542 34.2167 25.25 34.5 25.25ZM28 21.5C28.2833 21.5 28.5208 21.4042 28.7125 21.2125C28.9042 21.0208 29 20.7833 29 20.5C29 20.2167 28.9042 19.9792 28.7125 19.7875C28.5208 19.5958 28.2833 19.5 28 19.5C27.7167 19.5 27.4792 19.5958 27.2875 19.7875C27.0958 19.9792 27 20.2167 27 20.5C27 20.7833 27.0958 21.0208 27.2875 21.2125C27.4792 21.4042 27.7167 21.5 28 21.5Z" fill="white"/>
</g>
</svg>

<svg width="56" height="56" fill="none" xmlns="http://www.w3.org/2000/svg"><circle cx="28" cy="28" r="28" fill="#FF7A00"/><mask id="a" style="mask-type:alpha" maskUnits="userSpaceOnUse" x="16" y="16" width="24" height="24"><path fill="#D9D9D9" d="M16 16h24v24H16z"/></mask><g mask="url(#a)"><path d="M28 38.5a2.893 2.893 0 0 1-2.125-.875A2.893 2.893 0 0 1 25 35.5c0-.65.188-1.233.563-1.75A2.91 2.91 0 0 1 27 32.675V30.85a3.742 3.742 0 0 1-.525-.238 1.988 1.988 0 0 1-.45-.337l-1.575.925c.017.083.03.17.038.262s.012.188.012.288c0 .833-.292 1.542-.875 2.125a2.893 2.893 0 0 1-2.125.875 2.893 2.893 0 0 1-2.125-.875 2.893 2.893 0 0 1-.875-2.125c0-.833.292-1.542.875-2.125a2.893 2.893 0 0 1 2.125-.875c.383 0 .742.063 1.075.188.333.125.633.304.9.537l1.55-.9a2.425 2.425 0 0 1-.037-.275 3.625 3.625 0 0 1 0-.588c.008-.091.02-.179.037-.262l-1.55-.925a2.905 2.905 0 0 1-.9.538 3.037 3.037 0 0 1-1.075.187 2.893 2.893 0 0 1-2.125-.875 2.893 2.893 0 0 1-.875-2.125c0-.833.292-1.542.875-2.125a2.893 2.893 0 0 1 2.125-.875c.833 0 1.542.292 2.125.875s.875 1.292.875 2.125c0 .1-.004.2-.012.3-.009.1-.021.192-.038.275l1.575.9a1.72 1.72 0 0 1 .45-.325 5.18 5.18 0 0 1 .525-.225V23.35a2.886 2.886 0 0 1-1.438-1.088A2.96 2.96 0 0 1 25 20.5c0-.833.292-1.542.875-2.125A2.893 2.893 0 0 1 28 17.5c.833 0 1.542.292 2.125.875S31 19.667 31 20.5a2.96 2.96 0 0 1-.563 1.762A2.886 2.886 0 0 1 29 23.35v1.825c.183.067.354.146.512.238.159.091.305.204.438.337l1.6-.95a2.467 2.467 0 0 1-.038-.262 3.19 3.19 0 0 1-.012-.288c0-.833.292-1.542.875-2.125a2.893 2.893 0 0 1 2.125-.875c.833 0 1.542.292 2.125.875s.875 1.292.875 2.125-.292 1.542-.875 2.125a2.893 2.893 0 0 1-2.125.875c-.383 0-.737-.063-1.063-.188a2.944 2.944 0 0 1-.887-.537l-1.625.95a2.917 2.917 0 0 1 0 1.075l1.625.925c.267-.233.563-.413.888-.538a2.934 2.934 0 0 1 1.062-.187c.833 0 1.542.292 2.125.875s.875 1.292.875 2.125-.292 1.542-.875 2.125a2.893 2.893 0 0 1-2.125.875 2.893 2.893 0 0 1-2.125-.875 2.893 2.893 0 0 1-.875-2.125 2.578 2.578 0 0 1 .05-.55l-1.6-.925c-.133.133-.28.242-.438.325a4.222 4.222 0 0 1-.512.225v1.85a2.91 2.91 0 0 1 1.438 1.075c.375.517.562 1.1.562 1.75 0 .833-.292 1.542-.875 2.125A2.893 2.893 0 0 1 28 38.5Zm0-2c.283 0 .52-.096.712-.288A.968.968 0 0 0 29 35.5a.968.968 0 0 0-.288-.712A.968.968 0 0 0 28 34.5a.968.968 0 0 0-.712.288.968.968 0 0 0-.288.712c0 .283.096.52.288.712A.965.965 0 0 0 28 36.5Zm-6.5-3.75c.283 0 .52-.096.712-.288a.968.968 0 0 0 .288-.712.968.968 0 0 0-.288-.712.968.968 0 0 0-.712-.288.968.968 0 0 0-.712.288.968.968 0 0 0-.288.712c0 .283.096.52.288.712a.965.965 0 0 0 .712.288Zm13 0c.283 0 .52-.096.712-.288a.968.968 0 0 0 .288-.712.968.968 0 0 0-.288-.712.968.968 0 0 0-.712-.288.968.968 0 0 0-.712.288.968.968 0 0 0-.288.712c0 .283.096.52.288.712a.965.965 0 0 0 .712.288ZM28 29c.283 0 .52-.096.712-.288A.968.968 0 0 0 29 28a.968.968 0 0 0-.288-.712A.968.968 0 0 0 28 27a.968.968 0 0 0-.712.288A.968.968 0 0 0 27 28c0 .283.096.52.288.712A.965.965 0 0 0 28 29Zm-6.5-3.75c.283 0 .52-.096.712-.288a.968.968 0 0 0 .288-.712.968.968 0 0 0-.288-.712.968.968 0 0 0-.712-.288.968.968 0 0 0-.712.288.968.968 0 0 0-.288.712c0 .283.096.52.288.712a.965.965 0 0 0 .712.288Zm13 0c.283 0 .52-.096.712-.288a.968.968 0 0 0 .288-.712.968.968 0 0 0-.288-.712.968.968 0 0 0-.712-.288.968.968 0 0 0-.712.288.968.968 0 0 0-.288.712c0 .283.096.52.288.712a.965.965 0 0 0 .712.288ZM28 21.5c.283 0 .52-.096.712-.288A.968.968 0 0 0 29 20.5a.968.968 0 0 0-.288-.712A.968.968 0 0 0 28 19.5a.968.968 0 0 0-.712.288.968.968 0 0 0-.288.712c0 .283.096.52.288.712A.965.965 0 0 0 28 21.5Z" fill="#fff"/></g></svg>
